src/pos-icons/shield-cross-outline.svg

<svg height="24" viewBox="0 0 24 24" width="24" xmlns="http://www.w3.org/2000/svg"><path d="m21 11c0 5.5-3.8 10.7-9 12-5.2-1.3-9-6.5-9-12v-6l9-4 9 4zm-9 10c3.8-1 7-5.5 7-9.8v-4.9l-7-3.1-7 3.1v4.9c0 4.3 3.3 8.8 7 9.8m4-12h-3v-3h-2v3h-3v2h3v8h2v-8h3z"/></svg>

<?xml version="1.0" encoding="UTF-8"?><!DOCTYPE svg PUBLIC "-//W3C//DTD SVG 1.1//EN" "http://www.w3.org/Graphics/SVG/1.1/DTD/svg11.dtd"><svg xmlns="http://www.w3.org/2000/svg" xmlns:xlink="http://www.w3.org/1999/xlink" version="1.1" id="mdi-shield-cross-outline" width="24" height="24" viewBox="0 0 24 24"><path d="M21,11C21,16.5 17.2,21.7 12,23C6.8,21.7 3,16.5 3,11V5L12,1L21,5V11M12,21C15.8,20 19,15.5 19,11.2V6.3L12,3.2L5,6.3V11.2C5,15.5 8.3,20 12,21M16,9H13V6H11V9H8V11H11V19H13V11H16V9Z" /></svg>
